static/logos/shutterstock-wordmark-color.svg

<svg width="100" height="15" viewBox="0 0 100 15" fill="none" xmlns="http://www.w3.org/2000/svg">
<g clip-path="url(#clip0_1_1084)">
<path fill-rule="evenodd" clip-rule="evenodd" d="M59.6839 8.44578L58.8782 8.30292C58.0782 8.15435 57.3925 7.96007 57.3925 7.13149C57.3925 6.41721 58.1182 6.08578 59.021 6.08578C60.3639 6.08578 61.5467 6.71435 61.6782 6.78292L62.421 4.78291C62.1353 4.63434 60.9353 3.97148 59.0439 3.97148C57.3125 3.97148 55.1982 4.90863 55.1982 7.22864C55.1982 9.31435 56.6439 9.98292 58.0382 10.2344L59.0096 10.4058C59.9467 10.5715 60.461 10.9315 60.461 11.5601C60.461 12.3601 59.7296 12.7372 58.621 12.7372C56.8496 12.7372 55.8096 12.1944 55.5067 12.0629L54.6953 14.0229C54.9467 14.1544 56.1582 14.8572 58.5182 14.8572C60.8039 14.8572 62.6439 13.6915 62.6439 11.5201C62.6267 9.49721 61.3067 8.73149 59.6839 8.44578ZM66.6839 0.331482L64.5125 1.56577V4.17148H63.3696V6.30292H64.5125V10.9144C64.5125 12.8801 65.301 14.6458 68.0782 14.6458H68.9467V12.5144H68.621C67.2496 12.5144 66.6782 11.7029 66.6782 10.6058V6.30292H69.1696V4.17148H66.6839V0.331482ZM83.621 6.14292C84.4667 6.14292 85.3353 6.53721 85.5925 7.49149L87.5582 6.72578C87.0096 4.72577 85.1982 3.97148 83.6039 3.97148C80.7467 3.97148 79.5925 5.80007 79.5925 7.57149V11.2572C79.5925 13.0286 80.7467 14.8572 83.6039 14.8572C85.2039 14.8572 87.0096 14.1086 87.5582 12.1029L85.5925 11.3372C85.3296 12.2915 84.4667 12.6915 83.621 12.6915C82.1467 12.6915 81.7582 11.8629 81.7582 10.9201V7.91435C81.7582 6.97149 82.1467 6.14292 83.621 6.14292ZM92.8896 8.88007L96.9467 4.1772H94.2782L90.7925 8.28007V0.331482H88.621V14.6515H90.7925V11.3201L91.501 10.4915L94.6096 14.6515H97.2096L92.8896 8.88007Z" fill="#25282A"/>
<path fill-rule="evenodd" clip-rule="evenodd" d="M75.2333 6.45721H72.9761C72.6161 6.45721 72.3247 6.76006 72.3247 7.13149V9.64578H70.1018V7.13149C70.0967 6.74875 70.1664 6.36875 70.3081 6.01315C70.4498 5.65753 70.6601 5.3333 70.927 5.05896C71.1938 4.78463 71.5121 4.56555 71.8635 4.41425C72.2155 4.26296 72.5933 4.1824 72.9761 4.17719H75.2333V6.46292V6.45721ZM73.399 12.3658H75.6504C76.0104 12.3658 76.3018 12.0686 76.3018 11.7029V9.18864H78.5247V11.7029C78.5338 12.4749 78.2361 13.2189 77.6973 13.7717C77.1584 14.3245 76.4224 14.6409 75.6504 14.6515H73.399V12.3658Z" fill="#F12815"/>
<path fill-rule="evenodd" clip-rule="evenodd" d="M36.6286 4.17148H39.12V6.30864H36.6286V10.6115C36.6286 11.7086 37.2 12.5201 38.5714 12.5201H38.8914V14.6515H38.0229C35.2457 14.6515 34.4629 12.8858 34.4629 10.9201V6.30864H30.8114V10.6115C30.8114 11.7086 31.3829 12.5201 32.7543 12.5201H33.0743V14.6515H32.2057C29.4286 14.6515 28.6457 12.8858 28.6457 10.9201V6.30864H27.5429V4.17148H28.6457V1.56577L30.8171 0.331482V4.1772H34.4629V1.56577L36.6286 0.331482V4.1772V4.17148ZM13.2229 3.97148C12.5371 3.97148 11.84 4.10863 11.2171 4.38291V0.331482H9.04571V14.6515H11.2171V6.46864C11.6514 6.18292 12.28 6.01149 12.8914 6.01149C14.2571 6.01149 14.8914 6.79435 14.8914 7.94292V14.6515H17.0629V7.64007C17.0629 5.52577 15.5771 3.97148 13.2229 3.97148ZM24.2114 12.5715C23.8 12.8001 23.28 12.9315 22.76 12.9315C21.1429 12.9315 20.5314 12.0801 20.5314 10.9144V4.17148H18.3657V10.9544C18.3657 13.5886 19.8514 14.8572 22.4971 14.8572C23.76 14.8572 25.1657 14.5258 26.3829 13.9886V4.17148H24.2114V12.5715ZM4.99429 8.44578L4.18286 8.30292C3.38286 8.15435 2.69714 7.96007 2.69714 7.13149C2.69714 6.41721 3.42286 6.08578 4.32571 6.08578C5.67429 6.08578 6.85143 6.71435 6.98857 6.78292L7.72 4.78291C7.44 4.63434 6.24 3.97148 4.34857 3.97148C2.61714 3.97148 0.502857 4.90863 0.502857 7.22864C0.502857 9.31435 1.94857 9.98292 3.34286 10.2344L4.31429 10.4058C5.25143 10.5715 5.76571 10.9315 5.76571 11.5601C5.76571 12.3601 5.03429 12.7372 3.93143 12.7372C2.16 12.7372 1.11429 12.1944 0.817143 12.0629L0 14.0229C0.257143 14.1544 1.46286 14.8572 3.82857 14.8572C6.11429 14.8572 7.95429 13.6915 7.95429 11.5201C7.93143 9.49721 6.61143 8.73149 4.99429 8.44578ZM45.9143 8.62292H42.2571V7.85721C42.2571 7.00578 42.6743 6.09721 44.0971 6.09721C45.4686 6.09721 45.9143 6.98292 45.9143 7.81149V8.62292ZM48.0857 7.57149C48.0857 5.6572 46.6629 3.97148 44.1086 3.97148C41.2114 3.97148 40.0971 5.83435 40.0971 7.57149V11.0572C40.0971 13.4572 41.5943 14.8572 44.1086 14.8572C46.3314 14.8572 47.48 13.5372 47.8229 12.7429L45.9943 11.6115C45.84 12.0801 45.1143 12.7315 44.1257 12.7315C42.7829 12.7315 42.2686 11.9658 42.2686 11.0001L42.2629 10.4286H48.0857V7.57149ZM49.4743 7.57721V14.6515H51.64V7.77149C51.64 7.17149 51.9714 6.14292 53.56 6.14292C53.8114 6.14292 54.3771 6.21721 54.5543 6.25721V4.08577C54.1914 4.01124 53.8218 3.97485 53.4514 3.9772C50.6971 3.9772 49.4743 5.75435 49.4743 7.58292" fill="#F12815"/>
</g>
<defs>
<clipPath id="clip0_1_1084">
<rect width="100" height="14.8571" fill="white"/>
</clipPath>
</defs>
</svg>

<svg xmlns="http://www.w3.org/2000/svg" width="426.667" height="64" fill="none" viewBox="0 0 100 15"><g fill-rule="evenodd" clip-path="url(#a)" clip-rule="evenodd"><path fill="#25282A" d="m59.684 8.446-.806-.143c-.8-.149-1.486-.343-1.486-1.172 0-.714.726-1.045 1.629-1.045 1.343 0 2.526.628 2.657.697l.743-2c-.286-.149-1.486-.812-3.377-.812-1.731 0-3.846.938-3.846 3.258 0 2.085 1.446 2.754 2.84 3.005l.972.172c.937.165 1.451.525 1.451 1.154 0 .8-.731 1.177-1.84 1.177-1.771 0-2.811-.543-3.114-.674l-.812 1.96c.252.131 1.463.834 3.823.834 2.286 0 4.126-1.165 4.126-3.337-.017-2.023-1.337-2.789-2.96-3.074Zm7-8.115-2.171 1.235V4.17H63.37v2.132h1.143v4.611c0 1.966.788 3.732 3.565 3.732h.869v-2.132h-.326c-1.371 0-1.943-.811-1.943-1.908V6.303h2.492V4.17h-2.486V.331ZM83.62 6.143c.846 0 1.714.394 1.972 1.348l1.965-.765c-.548-2-2.36-2.755-3.954-2.755-2.857 0-4.011 1.83-4.011 3.6v3.686c0 1.772 1.154 3.6 4.01 3.6 1.6 0 3.407-.748 3.955-2.754l-1.966-.766c-.262.954-1.125 1.354-1.971 1.354-1.474 0-1.863-.828-1.863-1.77V7.913c0-.943.389-1.771 1.863-1.771ZM92.89 8.88l4.057-4.703h-2.669L90.792 8.28V.331h-2.171v14.32h2.172v-3.33l.708-.83 3.109 4.16h2.6l-4.32-5.77Z"/><path fill="#F12815" d="M75.233 6.457h-2.257a.664.664 0 0 0-.651.674v2.515h-2.223V7.13a2.916 2.916 0 0 1 2.874-2.954h2.257v2.286-.006ZM73.4 12.366h2.251c.36 0 .652-.297.652-.663V9.189h2.223v2.514a2.915 2.915 0 0 1-2.875 2.949H73.4v-2.286ZM36.629 4.171h2.491V6.31h-2.491v4.302c0 1.098.571 1.91 1.942 1.91h.32v2.13h-.868c-2.777 0-3.56-1.765-3.56-3.73V6.308H30.81v4.302c0 1.098.572 1.91 1.943 1.91h.32v2.13h-.868c-2.777 0-3.56-1.765-3.56-3.73V6.308h-1.103V4.17h1.103V1.566L30.817.33v3.846h3.646V1.566L36.629.33v3.846-.006Zm-23.406-.2a5.02 5.02 0 0 0-2.006.412V.33H9.046v14.32h2.171V6.47c.434-.286 1.063-.458 1.674-.458 1.366 0 2 .783 2 1.932v6.709h2.172V7.64c0-2.114-1.486-3.669-3.84-3.669Zm10.988 8.6a3.05 3.05 0 0 1-1.451.36c-1.617 0-2.229-.85-2.229-2.017V4.171h-2.165v6.783c0 2.635 1.485 3.903 4.131 3.903 1.263 0 2.669-.331 3.886-.868V4.17H24.21v8.4ZM4.994 8.447l-.811-.143c-.8-.149-1.486-.343-1.486-1.172 0-.714.726-1.045 1.629-1.045 1.348 0 2.525.628 2.663.697l.731-2c-.28-.149-1.48-.812-3.371-.812-1.732 0-3.846.938-3.846 3.258 0 2.085 1.446 2.754 2.84 3.005l.971.172c.937.165 1.452.525 1.452 1.154 0 .8-.732 1.177-1.835 1.177-1.771 0-2.817-.543-3.114-.674L0 14.023c.257.131 1.463.834 3.829.834 2.285 0 4.125-1.165 4.125-3.337-.023-2.023-1.343-2.789-2.96-3.074Zm40.92.177h-3.657v-.766c0-.851.417-1.76 1.84-1.76 1.372 0 1.817.886 1.817 1.714v.812Zm2.172-1.052c0-1.914-1.423-3.6-3.977-3.6-2.898 0-4.012 1.863-4.012 3.6v3.486c0 2.4 1.497 3.8 4.012 3.8 2.222 0 3.371-1.32 3.714-2.114l-1.829-1.132c-.154.47-.88 1.12-1.868 1.12-1.343 0-1.857-.765-1.857-1.73l-.006-.572h5.823V7.57Zm1.388.006v7.075h2.166v-6.88c0-.6.331-1.63 1.92-1.63.251 0 .817.075.994.115V4.086a5.314 5.314 0 0 0-1.103-.109c-2.754 0-3.977 1.777-3.977 3.606"/></g><defs><clipPath id="a"><path fill="#fff" d="M0 0h100v14.857H0z"/></clipPath></defs></svg>
